Origami/48x48/apps/visual-studio-code-insiders.svg

<svg width="48" height="48" version="1" xmlns="http://www.w3.org/2000/svg">
 <path d="m32.023438 5.0006395a5.0005 5.0005 0 0 0 -3.478516 1.3867188l-9.310547 8.9062507-4.164063-3.240235a5.0005 5.0005 0 0 0 -5.8437495 -0.21289l-3 2a5.0005 5.0005 0 0 0 -2.2265625 4.160156v14a5.0005 5.0005 0 0 0 2.2265625 4.160156l3 2a5.0005 5.0005 0 0 0 5.8437495 -0.21289l4.164063-3.240235 9.310547 8.90625a5.0005 5.0005 0 0 0 5.423828 0.982422l7-3a5.0005 5.0005 0 0 0 3.03125 -4.595703v-24a5.0005 5.0005 0 0 0 -3.03125 -4.5957036l-7-3a5.0005 5.0005 0 0 0 -1.945312 -0.4042969z" style="opacity:.2"/>
 <path d="m32.023438 4a5.0005 5.0005 0 0 0 -3.478516 1.3867188l-9.310547 8.9062502-4.164063-3.240235a5.0005 5.0005 0 0 0 -5.8437495 -0.21289l-3 2a5.0005 5.0005 0 0 0 -2.2265625 4.160156v14a5.0005 5.0005 0 0 0 2.2265625 4.160156l3 2a5.0005 5.0005 0 0 0 5.8437495 -0.21289l4.164063-3.240235 9.310547 8.90625a5.0005 5.0005 0 0 0 5.423828 0.982422l7-3a5.0005 5.0005 0 0 0 3.03125 -4.595703v-24a5.0005 5.0005 0 0 0 -3.03125 -4.5957031l-7-3a5.0005 5.0005 0 0 0 -1.945312 -0.4042969z" style="fill:#009d3d"/>
 <path d="m32 10-12.43 11.889-7.57-5.889-3 2v14l3 2 7.57-5.889 12.43 11.889 7-3v-24l-7-3zm0 8.4453v13.109l-8.428-6.554 8.428-6.555zm-20 2.424 4.318 4.131-4.318 4.131v-8.262z" fill-rule="evenodd" opacity=".2"/>
 <g fill="#fff" fill-rule="evenodd">
  <path d="m32 9l-12.429688 11.888672-7.570312-5.888672-3 2v14l3 2 7.570312-5.888672 12.429688 11.888672 7-3v-24l-7-3zm0 8.445312v13.109376l-8.427734-6.554688 8.427734-6.554688zm-20 2.423829l4.318359 4.130859-4.318359 4.130859v-8.261718z"/>
  <path d="m32 9l-12.429688 11.888672-7.570312-5.888672-3 2v14l3 2 7.570312-5.888672 12.429688 11.888672 7-3v-24l-7-3zm0 8.445312v13.109376l-8.427734-6.554688 8.427734-6.554688zm-20 2.423829l4.318359 4.130859-4.318359 4.130859v-8.261718z" style="fill:none"/>
 </g>
 <path d="m32.023438 4a5.0005 5.0005 0 0 0 -3.478516 1.3867188l-9.310547 8.9062502-4.164063-3.240235a5.0005 5.0005 0 0 0 -5.8437495 -0.21289l-3 2a5.0005 5.0005 0 0 0 -2.2265625 4.160156v1a5.0005 5.0005 0 0 1 2.2265625 -4.160156l3-2a5.0005 5.0005 0 0 1 5.8437495 0.21289l4.164063 3.240235 9.310547-8.9062502a5.0005 5.0005 0 0 1 3.478516 -1.3867188 5.0005 5.0005 0 0 1 1.945312 0.4042969l7 3a5.0005 5.0005 0 0 1 3.03125 4.5957031v-1a5.0005 5.0005 0 0 0 -3.03125 -4.5957031l-7-3a5.0005 5.0005 0 0 0 -1.945312 -0.4042969z" style="fill:#ffffff;opacity:.1"/>
</svg>

<svg xmlns="http://www.w3.org/2000/svg" width="48" height="48" version="1">
 <path style="opacity:0.2" d="m 32.023438,5.0006395 a 5.0005,5.0005 0 0 0 -3.478516,1.3867188 l -9.310547,8.9062507 -4.164063,-3.240235 a 5.0005,5.0005 0 0 0 -5.8437495,-0.21289 l -3,2 A 5.0005,5.0005 0 0 0 4,18.00064 v 14 a 5.0005,5.0005 0 0 0 2.2265625,4.160156 l 3,2 a 5.0005,5.0005 0 0 0 5.8437495,-0.21289 l 4.164063,-3.240235 9.310547,8.90625 a 5.0005,5.0005 0 0 0 5.423828,0.982422 l 7,-3 A 5.0005,5.0005 0 0 0 44,37.00064 v -24 A 5.0005,5.0005 0 0 0 40.96875,8.4049364 l -7,-3 A 5.0005,5.0005 0 0 0 32.023438,5.0006395 Z"/>
 <path style="fill:#009d3d" d="m 32.023438,4 a 5.0005,5.0005 0 0 0 -3.478516,1.3867188 l -9.310547,8.9062502 -4.164063,-3.240235 a 5.0005,5.0005 0 0 0 -5.8437495,-0.21289 l -3,2 A 5.0005,5.0005 0 0 0 4,17 v 14 a 5.0005,5.0005 0 0 0 2.2265625,4.160156 l 3,2 a 5.0005,5.0005 0 0 0 5.8437495,-0.21289 l 4.164063,-3.240235 9.310547,8.90625 a 5.0005,5.0005 0 0 0 5.423828,0.982422 l 7,-3 A 5.0005,5.0005 0 0 0 44,36 V 12 A 5.0005,5.0005 0 0 0 40.96875,7.4042969 l -7,-3 A 5.0005,5.0005 0 0 0 32.023438,4 Z"/>
 <path fill-rule="evenodd" opacity=".2" d="m32 10-12.43 11.889-7.57-5.889-3 2v14l3 2 7.57-5.889 12.43 11.889 7-3v-24l-7-3zm0 8.4453v13.109l-8.428-6.554 8.428-6.555zm-20 2.424 4.318 4.131-4.318 4.131v-8.262z"/>
 <g fill="#fff" fill-rule="evenodd">
  <path d="M 32 9 L 19.570312 20.888672 L 12 15 L 9 17 L 9 31 L 12 33 L 19.570312 27.111328 L 32 39 L 39 36 L 39 12 L 32 9 z M 32 17.445312 L 32 30.554688 L 23.572266 24 L 32 17.445312 z M 12 19.869141 L 16.318359 24 L 12 28.130859 L 12 19.869141 z"/>
  <path style="fill:none" d="M 32 9 L 19.570312 20.888672 L 12 15 L 9 17 L 9 31 L 12 33 L 19.570312 27.111328 L 32 39 L 39 36 L 39 12 L 32 9 z M 32 17.445312 L 32 30.554688 L 23.572266 24 L 32 17.445312 z M 12 19.869141 L 16.318359 24 L 12 28.130859 L 12 19.869141 z"/>
 </g>
 <path style="opacity:0.1;fill:#ffffff" d="M 32.023438 4 A 5.0005 5.0005 0 0 0 28.544922 5.3867188 L 19.234375 14.292969 L 15.070312 11.052734 A 5.0005 5.0005 0 0 0 9.2265625 10.839844 L 6.2265625 12.839844 A 5.0005 5.0005 0 0 0 4 17 L 4 18 A 5.0005 5.0005 0 0 1 6.2265625 13.839844 L 9.2265625 11.839844 A 5.0005 5.0005 0 0 1 15.070312 12.052734 L 19.234375 15.292969 L 28.544922 6.3867188 A 5.0005 5.0005 0 0 1 32.023438 5 A 5.0005 5.0005 0 0 1 33.96875 5.4042969 L 40.96875 8.4042969 A 5.0005 5.0005 0 0 1 44 13 L 44 12 A 5.0005 5.0005 0 0 0 40.96875 7.4042969 L 33.96875 4.4042969 A 5.0005 5.0005 0 0 0 32.023438 4 z"/>
</svg>
